X:16
T: SAUSE LIEBE NINNE WAS RASCHELT IM STROH
N: K0055A
O: Europa, Mitteleuropa, Deutschland, Schlesien
R: Kinder -, Wiegen -, Schlaf - Lied
M: 3/4
L: 1/8
K: G
 |  |  | d3cBA | G2G2
GB | d2d2e2 | d4
GB | d3cBA | G2G2
GB | d2d2e2 | d4
B2 | A3AA2 | A2B2
c2 | d3cB2 | A4
GB | d3cBA | G2G2
G2 | A2B2A2 | G4z2

@@@ Tune index: 7353
